svgs/bandsintown.svg

<svg width="192" height="192" viewBox="0 0 192 192" fill="none" xmlns="http://www.w3.org/2000/svg">
<path d="M69.842 59.4382H90.2894V85.825H69.842V59.4382ZM106.842 59.4382H127.289V85.825H106.842V59.4382ZM143.842 22H164.289V85.825H143.842V22Z" stroke="black" stroke-width="12" stroke-linejoin="round"/>
<path d="M27 22V170H164.289V104.763H69.8421V127.158H139.947V146.632H52.3158V22H27Z" stroke="black" stroke-width="12" stroke-linejoin="round"/>
</svg>

<svg width="192" height="192" viewBox="0 0 192 192" fill="none" xmlns="http://www.w3.org/2000/svg"><path d="M69.842 59.438h20.447v26.387H69.842V59.438Zm37 0h20.447v26.387h-20.447V59.438Zm37-37.438h20.447v63.825h-20.447V22Z" stroke="#000" stroke-width="12" stroke-linejoin="round"/><path d="M27 22v148h137.289v-65.237H69.842v22.395h70.105v19.474H52.316V22H27Z" stroke="#000" stroke-width="12" stroke-linejoin="round"/></svg>
